svgs/duotone/teeth.svg

<svg xmlns="http://www.w3.org/2000/svg" viewBox="0 0 576 512"><!-- Font Awesome Pro 6.0.0-alpha2 by @fontawesome - https://fontawesome.com License - https://fontawesome.com/license (Commercial License) --><defs><style>.fa-secondary{opacity:.4}</style></defs><path d="M128 288H64C55.125 288 48 295.125 48 304V336C48 362.5 69.5 384 96 384S144 362.5 144 336V304C144 295.125 136.875 288 128 288ZM96 160C69.5 160 48 181.5 48 208V240C48 248.875 55.125 256 64 256H128C136.875 256 144 248.875 144 240V208C144 181.5 122.5 160 96 160ZM256 288H192C183.125 288 176 295.125 176 304V336C176 362.5 197.5 384 224 384S272 362.5 272 336V304C272 295.125 264.875 288 256 288ZM224 128C197.535 128 176 149.535 176 176V242.285C176 249.893 182.107 256 189.715 256H258.285C265.893 256 272 249.893 272 242.285V176C272 149.535 250.465 128 224 128ZM384 288H320C311.125 288 304 295.125 304 304V336C304 362.5 325.5 384 352 384S400 362.5 400 336V304C400 295.125 392.875 288 384 288ZM352 128C325.535 128 304 149.535 304 176V242.285C304 249.893 310.107 256 317.715 256H386.285C393.893 256 400 249.893 400 242.285V176C400 149.535 378.465 128 352 128ZM512 288H448C439.125 288 432 295.125 432 304V336C432 362.5 453.5 384 480 384S528 362.5 528 336V304C528 295.125 520.875 288 512 288ZM480 160C453.5 160 432 181.5 432 208V240C432 248.875 439.125 256 448 256H512C520.875 256 528 248.875 528 240V208C528 181.5 506.5 160 480 160Z" class="fa-secondary"/><path d="M480 32H96C42.98 32 0 74.98 0 128V384C0 437.02 42.98 480 96 480H480C533.02 480 576 437.02 576 384V128C576 74.98 533.02 32 480 32ZM144 336C144 362.5 122.5 384 96 384S48 362.5 48 336V304C48 295.125 55.125 288 64 288H128C136.875 288 144 295.125 144 304V336ZM144 240C144 248.875 136.875 256 128 256H64C55.125 256 48 248.875 48 240V208C48 181.5 69.5 160 96 160S144 181.5 144 208V240ZM272 336C272 362.5 250.5 384 224 384S176 362.5 176 336V304C176 295.125 183.125 288 192 288H256C264.875 288 272 295.125 272 304V336ZM272 242.285C272 249.893 265.893 256 258.285 256H189.715C182.107 256 176 249.893 176 242.285V176C176 149.535 197.535 128 224 128S272 149.535 272 176V242.285ZM400 336C400 362.5 378.5 384 352 384S304 362.5 304 336V304C304 295.125 311.125 288 320 288H384C392.875 288 400 295.125 400 304V336ZM400 242.285C400 249.893 393.893 256 386.285 256H317.715C310.107 256 304 249.893 304 242.285V176C304 149.535 325.535 128 352 128S400 149.535 400 176V242.285ZM528 336C528 362.5 506.5 384 480 384S432 362.5 432 336V304C432 295.125 439.125 288 448 288H512C520.875 288 528 295.125 528 304V336ZM528 240C528 248.875 520.875 256 512 256H448C439.125 256 432 248.875 432 240V208C432 181.5 453.5 160 480 160S528 181.5 528 208V240Z" class="fa-primary"/></svg>

<svg xmlns="http://www.w3.org/2000/svg" viewBox="0 0 576 512"><!--! Font Awesome Pro 6.3.0 by @fontawesome - https://fontawesome.com License - https://fontawesome.com/license (Commercial License) Copyright 2023 Fonticons, Inc. --><defs><style>.fa-secondary{opacity:.4}</style></defs><path class="fa-primary" d="M480 32H96C42.98 32 0 74.98 0 128v256c0 53.02 42.98 96 96 96h384c53.02 0 96-42.98 96-96V128C576 74.98 533 32 480 32zM144 336C144 362.5 122.5 384 96 384s-48-21.5-48-48v-32C48 295.1 55.13 288 64 288h64c8.875 0 16 7.125 16 16V336zM144 240C144 248.9 136.9 256 128 256H64C55.13 256 48 248.9 48 240v-32C48 181.5 69.5 160 96 160s48 21.5 48 48V240zM272 336C272 362.5 250.5 384 224 384s-48-21.5-48-48v-32C176 295.1 183.1 288 192 288h64c8.875 0 16 7.125 16 16V336zM272 242.3C272 249.9 265.9 256 258.3 256H189.7C182.1 256 176 249.9 176 242.3V176C176 149.5 197.5 128 224 128s48 21.54 48 48V242.3zM400 336c0 26.5-21.5 48-48 48s-48-21.5-48-48v-32C304 295.1 311.1 288 320 288h64c8.875 0 16 7.125 16 16V336zM400 242.3C400 249.9 393.9 256 386.3 256h-68.57C310.1 256 304 249.9 304 242.3V176C304 149.5 325.5 128 352 128s48 21.54 48 48V242.3zM528 336c0 26.5-21.5 48-48 48s-48-21.5-48-48v-32C432 295.1 439.1 288 448 288h64c8.875 0 16 7.125 16 16V336zM528 240C528 248.9 520.9 256 512 256h-64c-8.875 0-16-7.125-16-16v-32C432 181.5 453.5 160 480 160s48 21.5 48 48V240z"/><path class="fa-secondary" d="M128 288H64C55.13 288 48 295.1 48 304v32C48 362.5 69.5 384 96 384s48-21.5 48-48v-32C144 295.1 136.9 288 128 288zM96 160C69.5 160 48 181.5 48 208v32C48 248.9 55.13 256 64 256h64c8.875 0 16-7.125 16-16v-32C144 181.5 122.5 160 96 160zM256 288H192C183.1 288 176 295.1 176 304v32C176 362.5 197.5 384 224 384s48-21.5 48-48v-32C272 295.1 264.9 288 256 288zM224 128C197.5 128 176 149.5 176 176v66.29C176 249.9 182.1 256 189.7 256h68.57C265.9 256 272 249.9 272 242.3V176C272 149.5 250.5 128 224 128zM384 288h-64c-8.875 0-16 7.125-16 16v32c0 26.5 21.5 48 48 48s48-21.5 48-48v-32C400 295.1 392.9 288 384 288zM352 128c-26.46 0-48 21.54-48 48v66.29C304 249.9 310.1 256 317.7 256h68.57C393.9 256 400 249.9 400 242.3V176C400 149.5 378.5 128 352 128zM512 288h-64c-8.875 0-16 7.125-16 16v32c0 26.5 21.5 48 48 48s48-21.5 48-48v-32C528 295.1 520.9 288 512 288zM480 160c-26.5 0-48 21.5-48 48v32C432 248.9 439.1 256 448 256h64c8.875 0 16-7.125 16-16v-32C528 181.5 506.5 160 480 160z"/></svg>
